contributed-vectors/hour_blocks.svg

<svg xmlns="http://www.w3.org/2000/svg" xml:space="preserve" style="fill-rule:evenodd;clip-rule:evenodd;stroke-linejoin:round;stroke-miterlimit:2" viewBox="0 0 192 192"><path d="M164.5 21.5c0-5.519-4.481-10-10-10h-133c-5.519 0-10 4.481-10 10v133c0 5.519 4.481 10 10 10h133c5.519 0 10-4.481 10-10v-133Z" style="fill:#f9de81" transform="translate(8 8)"/><path d="M74.426 116.037c0-.913-.095-1.789-.263-2.434-.168-.646-.396-1.008-.634-1.008h-8.236c-.238 0-.466.362-.634 1.008-.168.645-.262 1.521-.262 2.434V137.7c0 .913.094 1.789.262 2.434.168.646.396 1.008.634 1.008h8.236c.238 0 .466-.362.634-1.008.168-.645.263-1.521.263-2.434v-21.663Z" style="fill:#fff" transform="matrix(3.83887 0 0 1 -193.101 0)"/><path d="M74.426 114.311c0-.948-.402-1.716-.897-1.716h-8.236c-.495 0-.896.768-.896 1.716v25.115c0 .948.401 1.716.896 1.716h8.236c.495 0 .897-.768.897-1.716v-25.115Z" style="fill:#fff" transform="matrix(3.83887 0 0 2.00543 -193.101 -175.112)"/><path d="M74.426 116.037c0-.913-.095-1.789-.263-2.434-.168-.646-.396-1.008-.634-1.008h-8.236c-.238 0-.466.362-.634 1.008-.168.645-.262 1.521-.262 2.434V137.7c0 .913.094 1.789.262 2.434.168.646.396 1.008.634 1.008h8.236c.238 0 .466-.362.634-1.008.168-.645.263-1.521.263-2.434v-21.663Z" style="fill:#fff" transform="matrix(3.83887 0 0 -1 -147.82 191.832)"/><path d="M74.426 114.311c0-.948-.402-1.716-.897-1.716h-8.236c-.495 0-.896.768-.896 1.716v25.115c0 .948.401 1.716.896 1.716h8.236c.495 0 .897-.768.897-1.716v-25.115Z" style="fill:#fff" transform="matrix(3.83887 0 0 -2.00543 -147.82 366.944)"/></svg>

<?xml version="1.0" encoding="UTF-8" standalone="no"?>
<!DOCTYPE svg PUBLIC "-//W3C//DTD SVG 1.1//EN" "http://www.w3.org/Graphics/SVG/1.1/DTD/svg11.dtd">
<svg width="100%" height="100%" viewBox="0 0 192 192" version="1.1" xmlns="http://www.w3.org/2000/svg" xmlns:xlink="http://www.w3.org/1999/xlink" xml:space="preserve" xmlns:serif="http://www.serif.com/" style="fill-rule:evenodd;clip-rule:evenodd;stroke-linejoin:round;stroke-miterlimit:2;">
    <g id="Layer1">
        <g transform="matrix(1,0,0,1,8,8)">
            <path d="M164.5,21.5C164.5,15.981 160.019,11.5 154.5,11.5L21.5,11.5C15.981,11.5 11.5,15.981 11.5,21.5L11.5,154.5C11.5,160.019 15.981,164.5 21.5,164.5L154.5,164.5C160.019,164.5 164.5,160.019 164.5,154.5L164.5,21.5Z" style="fill:rgb(249,222,129);"/>
        </g>
        <g>
            <g>
                <g transform="matrix(3.83887,0,0,1,-193.101,0)">
                    <path d="M74.426,116.037C74.426,115.124 74.331,114.248 74.163,113.603C73.995,112.957 73.767,112.595 73.529,112.595C71.625,112.595 67.197,112.595 65.293,112.595C65.055,112.595 64.827,112.957 64.659,113.603C64.491,114.248 64.397,115.124 64.397,116.037C64.397,121.528 64.397,132.209 64.397,137.7C64.397,138.613 64.491,139.489 64.659,140.134C64.827,140.78 65.055,141.142 65.293,141.142C67.197,141.142 71.625,141.142 73.529,141.142C73.767,141.142 73.995,140.78 74.163,140.134C74.331,139.489 74.426,138.613 74.426,137.7C74.426,132.209 74.426,121.528 74.426,116.037Z" style="fill:white;"/>
                </g>
                <g transform="matrix(3.83887,0,0,2.00543,-193.101,-175.112)">
                    <path d="M74.426,114.311C74.426,113.363 74.024,112.595 73.529,112.595L65.293,112.595C64.798,112.595 64.397,113.363 64.397,114.311L64.397,139.426C64.397,140.374 64.798,141.142 65.293,141.142L73.529,141.142C74.024,141.142 74.426,140.374 74.426,139.426L74.426,114.311Z" style="fill:white;"/>
                </g>
            </g>
            <g transform="matrix(1,0,0,-1,45.2818,191.832)">
                <g transform="matrix(3.83887,0,0,1,-193.101,0)">
                    <path d="M74.426,116.037C74.426,115.124 74.331,114.248 74.163,113.603C73.995,112.957 73.767,112.595 73.529,112.595C71.625,112.595 67.197,112.595 65.293,112.595C65.055,112.595 64.827,112.957 64.659,113.603C64.491,114.248 64.397,115.124 64.397,116.037C64.397,121.528 64.397,132.209 64.397,137.7C64.397,138.613 64.491,139.489 64.659,140.134C64.827,140.78 65.055,141.142 65.293,141.142C67.197,141.142 71.625,141.142 73.529,141.142C73.767,141.142 73.995,140.78 74.163,140.134C74.331,139.489 74.426,138.613 74.426,137.7C74.426,132.209 74.426,121.528 74.426,116.037Z" style="fill:white;"/>
                </g>
                <g transform="matrix(3.83887,0,0,2.00543,-193.101,-175.112)">
                    <path d="M74.426,114.311C74.426,113.363 74.024,112.595 73.529,112.595L65.293,112.595C64.798,112.595 64.397,113.363 64.397,114.311L64.397,139.426C64.397,140.374 64.798,141.142 65.293,141.142L73.529,141.142C74.024,141.142 74.426,140.374 74.426,139.426L74.426,114.311Z" style="fill:white;"/>
                </g>
            </g>
        </g>
    </g>
</svg>
